X:1
T:Title
%%score { ( 1 3 5 ) | ( 2 4 ) }
L:1/8
M:2/4
K:Bb
V:1 treble nm="Grand Piano"
V:3 treble 
V:5 treble 
V:2 bass 
V:4 bass 
V:1
 z2 z[Q:1/4=64] F | B/c/[DB] A/B/[DA] | G/A/ [DG]2 [DG] | F/G/F cF |[M:3/8] d2 z |[M:1/8] [B,DF] | %6
[M:2/4] B/c/[DB] A/B/[DA] | G/A/ [DG]2 [DG] | .[B,=EG].[B,EB] [Ed][Ec] |[M:3/8] F3 |[M:1/8] F | %11
[M:2/4] e2 z2 | F/G/F/G/ F[DF] | G/A/[FB] [Fc][Fd] |[M:3/8] c3 |[M:1/8] F |[M:2/4] [Fd]d/e/ fd | %17
 BB/c/ dB | GG/A/ [GB][Gc] |[M:7/16] [^Fd]-<[Fd][=Fe]3/2 |[M:1/8] F |[M:2/4] [Fd]d/e/ fd | %22
[M:9/16] B[Gc]/-[Gc]/[^Fd]-[Fd]/[=Fd] |[M:2/4] z .d z2 |[M:3/8] [DB]3 |] %25
V:2
 z2 z F, | [B,,F,B,][B,,F,B,] [B,,F,B,][B,,F,B,] | [B,,F,B,] [B,,F,B,]2 [B,,F,B,] | %3
 [F,A,E][F,A,E] [F,A,E][F,A,E] |[M:3/8] z z[K:treble] B |[M:1/8][K:bass] B,, | %6
[M:2/4] [B,,F,B,][B,,F,B,] [B,,F,B,][B,,F,B,] | [B,,F,B,] [B,,F,B,]2 [B,,F,B,] | %8
 z/ .A[K:treble]c/[K:bass] [C,B,][C,B,] |[M:3/8] [F,A,]3 |[M:1/8] z | %11
[M:2/4] F,,[F,A,] [F,A,E][F,A,E] | B,,[F,B,D] [F,B,D][B,,B,] | [E,B,E][D,B,] [C,A,][B,,B,] | %14
[M:3/8] [F,A,F]3 |[M:1/8] F, |[M:2/4] [B,,B,][K:treble][B,F] [A,CF][B,F] | %17
 [G,B,D][G,B,D][K:bass] [F,A,D][G,B,D] | [E,B,E][E,B,E] [E,G,][E,G,] |[M:7/16] A,-<A,-[C,A,]3/2 | %20
[M:1/8] F, |[M:2/4] [B,,B,][K:treble][B,F] [A,CF][B,F] | %22
[M:9/16][K:bass] [G,B,D][E,G,]/-[E,G,]/[D,A,]-[D,A,]/[=B,,_A,] | %23
[M:2/4] [C,G,][C,G,] [F,A,F][F,A,E] |[M:3/8] [B,,F,B,]3 |] %25
V:3
 x4 | .D2 .D2 | .D2 z2 | x4 |[M:3/8] D3 |[M:1/8] x |[M:2/4] .D2 .D2 | .D2 z2 | x4 |[M:3/8] x3 | %10
[M:1/8] x |[M:2/4] z z/ c/ AG | x4 | x4 |[M:3/8] x3 |[M:1/8] x |[M:2/4] x4 | x4 | x4 | %19
[M:7/16] x7/2 |[M:1/8] x |[M:2/4] x4 |[M:9/16] x9/2 |[M:2/4] [Ee]E/-[Ec]/ dc |[M:3/8] x3 |] %25
V:4
 x4 | x4 | x4 | x4 |[M:3/8] [B,,B,]3[K:treble] |[M:1/8][K:bass] x |[M:2/4] x4 | x4 | %8
 C,C,[K:treble][K:bass] z2 |[M:3/8] x3 |[M:1/8] x |[M:2/4] x4 | x4 | x4 |[M:3/8] x3 |[M:1/8] x | %16
[M:2/4] x[K:treble] x3 | x2[K:bass] x2 | x4 |[M:7/16] D,-<D, z/ z |[M:1/8] x | %21
[M:2/4] x[K:treble] x3 |[M:9/16][K:bass] x9/2 |[M:2/4] x4 |[M:3/8] x3 |] %25
V:5
 x4 | x4 | x4 | x4 |[M:3/8] x3 |[M:1/8] x |[M:2/4] x4 | x4 | x4 |[M:3/8] x3 |[M:1/8] x | %11
[M:2/4] z E z2 | x4 | x4 |[M:3/8] x3 |[M:1/8] x |[M:2/4] x4 | x4 | x4 |[M:7/16] x7/2 |[M:1/8] x | %21
[M:2/4] x4 |[M:9/16] x9/2 |[M:2/4] x4 |[M:3/8] x3 |] %25

